rospo-light/16x16/actions/node-type-cusp.svg

<svg height="16" viewBox="0 0 16 16" width="16" xmlns="http://www.w3.org/2000/svg"><path d="m15.496094.99609375a.50005.50005 0 0 0 -.488282.46093745c-.390859 4.1341001-2.236415 6.8007719-5.1035151 8.9511718l-2.3261719-2.3261718c-.12184-.62281-.27381-1.2624749-.5-1.921875-.45294-1.3204-1.1389781-2.6036593-2.2050781-3.5683593-1.0661-.96465-2.5172469-1.5878907-4.3730469-1.5878907a.50005.50005 0 1 0 0 1c1.638 0 2.8050719.5192282 3.7011719 1.3300782.89607.81083 1.5153406 1.9367906 1.9316406 3.1503906.26588.77507.4268713 1.5656375.5507813 2.3359375l-2.6835938 2.6835935 3.5 3.5 3.5-3.5-.351562-.351562c2.968999-2.2988002 4.944368-5.2535628 5.355468-9.6015628a.50005.50005 0 0 0 -.507812-.55468745z" fill="#5c616c"/></svg>

<?xml version="1.0" encoding="UTF-8" standalone="no"?>
<svg xmlns="http://www.w3.org/2000/svg" width="22" height="22" viewBox="0 0 22 22">
 <defs>
  <style type="text/css" id="current-color-scheme">
   .ColorScheme-Text { color:#5c616c; } .ColorScheme-Highlight { color:#5294e2; }
  </style>
 </defs>
 <path style="fill:currentColor;opacity:1" class="ColorScheme-Text" transform="translate(3 3)" d="M 15.496094 0.99609375 A 0.50005 0.50005 0 0 0 15.007812 1.4570312 C 14.616953 5.5911313 12.771397 8.2578031 9.9042969 10.408203 L 7.578125 8.0820312 C 7.456285 7.4592212 7.304315 6.8195563 7.078125 6.1601562 C 6.625185 4.8397562 5.9391469 3.5564969 4.8730469 2.5917969 C 3.8069469 1.6271469 2.3558 1.0039062 0.5 1.0039062 A 0.50005 0.50005 0 1 0 0.5 2.0039062 C 2.138 2.0039062 3.3050719 2.5231344 4.2011719 3.3339844 C 5.0972419 4.1448144 5.7165125 5.270775 6.1328125 6.484375 C 6.3986925 7.259445 6.5596838 8.0500125 6.6835938 8.8203125 L 4 11.503906 L 7.5 15.003906 L 11 11.503906 L 10.648438 11.152344 C 13.617437 8.8535438 15.592806 5.8987812 16.003906 1.5507812 A 0.50005 0.50005 0 0 0 15.496094 0.99609375 z"/>
</svg>
